X: 30781
T: Oslo, The
R: waltz
M: 3/4
K: Gmajor
|:(3d^cd|ed Bd GB|D2 G2 B2|E6|D6|
G2F3 A|d4 c2|B3 A Bc|B4 (3d^cd|
ed Bd GB|D2 G3 B|E6|D6|G2 F4|d4F2|G2 GG G2:|
|:d6|g6|g2 f3 e|B6|
d3 e d2|c2 B2 A2|G3F GA|B4 (3ABc|
d6|g6|g2 f3 e|B6|d3e d2|c2B2A2|1 G6:|2 G4 (3d^cd||
w: Repeat 1st Part and then >
e6|e4 d2|c6-|c6|G2 c3 e|=f2 g3 ^g|a6|a6|
=f6|d4 c2|B6-|B6|G3 G G2|G3 F3|=F6|E6|
e6|e4 d2|c6|c6|G2 c3e|=f2 g3 ^g|a6|b6|
c'6|b4 a2|g4 e2|c4 A2|G6|d6|c6|c6:|
W: Play 1st part x 2 and Finish.

